X:139j
T: Azért vagyok magyar huszár...
M: 4/4
L: 1/4
K: Bb
gggf | efge | 
gggf | edcG | 
c2f2 | e/d/c/B/ c2 | 
e/d/c/B/ c A | G G G2 | 

